data/jaini.svg

<svg width="24.164" height="18.396" viewBox="0 0 24.164 18.396" xmlns="http://www.w3.org/2000/svg"><path transform="translate(0 14.672) scale(.014 -.014)" d="m222 10q-41 0-78 13.5t-65.5 34.5-45 44-16.5 42q0 32 2 60t8 62l99-18q-4-28-6-56t-2-63q0-19 7.5-27t25.5-8q41 0 61.5 21t20.5 86q0 25-1 55t-1 80v53q0 48 3.5 94t11.5 73h-67l-51 66 7 17h159l56-78q-18-64-18-177v-42q0-62 1-107t1-83q0-142-112-142z"/><path transform="translate(5.39 14.672) scale(.014 -.014)" d="m393 5q-24 8-44 16.5t-38 18.5q-14-14-33.5-22.5t-44.5-8.5q-17 0-49.5 11t-66.5 28.5-57.5 39-23.5 42.5q0 26 0.5 46.5t0.5 24.5q0 59 30.5 83.5t85.5 24.5q28 0 60-4t52-9q1 28 1.5 53.5t0.5 38.5q0 11-6 16t-22 5q-39 0-66-6t-51-20h-19l-65 95 8 16h167q20 0 45.5-15.5t50.5-38.5 41-47 16-42q0-33-2-78t-4-91.5-2-84.5q0-30 10-41.5t38-22.5zm-258 125q0-25 9-31.5t22-6.5q41 0 68.5 21.5t27.5 67.5q0 9 0.5 22t0.5 29q-11 3-27 4t-29 1q-36 0-54-16t-18-56z"/><path transform="translate(11.172 14.672) scale(.014 -.014)" d="m111 561-66 71v10q27 36 73 63l66-69-1-12q-20-14-37.5-31t-34.5-32zm89-563q-64 24-98.5 43.5t-34.5 35.5q0 14 3.5 43.5t3.5 57.5v143q0 26 2.5 48.5t8.5 39.5h-33l-53 68 7 17h128l58-78q-12-16-15.5-40t-3.5-61v-148q0-36-3-63.5t-3-41.5q0-10 7.5-15.5t37.5-21.5z"/><path transform="translate(14.518 14.672) scale(.014 -.014)" d="m190 0q-64 24-98.5 43.5t-34.5 35.5q0 14 3.5 43.5t3.5 57.5v128q0 20 1.5 50t6.5 51h-37l-52 69 7 16h94q4 0 17.5-13.5t27.5-30.5q19 26 47.5 38.5t55.5 12.5h21q20 0 44.5-16t48-39 38.5-45.5 15-36.5q0-25-2-62t-2-60v-73q0-36-3-63.5t-3-41.5q0-10 7.5-15.5t37.5-21.5l-12-27q-64 24-98.5 43.5t-34.5 35.5q0 14 3.5 43.5t3.5 57.5v52q0 32 2 73t2 72q0 20-5 27t-22 7q-56 0-83-28.5t-27-78.5v-135q0-36-3-63.5t-3-41.5q0-10 7.5-15.5t37.5-21.5z"/><path transform="translate(20.818 14.672) scale(.014 -.014)" d="m111 561-66 71v10q27 36 73 63l66-69-1-12q-20-14-37.5-31t-34.5-32zm89-563q-64 24-98.5 43.5t-34.5 35.5q0 14 3.5 43.5t3.5 57.5v143q0 26 2.5 48.5t8.5 39.5h-33l-53 68 7 17h128l58-78q-12-16-15.5-40t-3.5-61v-148q0-36-3-63.5t-3-41.5q0-10 7.5-15.5t37.5-21.5z"/></svg>

<?xml version="1.0" encoding="utf-8" ?>
<svg baseProfile="tiny" height="100%" version="1.2" width="100%" xmlns="http://www.w3.org/2000/svg" xmlns:ev="http://www.w3.org/2001/xml-events" xmlns:xlink="http://www.w3.org/1999/xlink"><defs /><g><path d="M222 10Q181 10 144.0 23.5Q107 37 78.5 58.0Q50 79 33.5 102.0Q17 125 17 144Q17 176 19.0 204.0Q21 232 27 266L126 248Q122 220 120.0 192.0Q118 164 118 129Q118 110 125.5 102.0Q133 94 151 94Q192 94 212.5 115.0Q233 136 233 201Q233 226 232.0 256.0Q231 286 231 336V389Q231 437 234.5 483.0Q238 529 246 556H179L128 622L135 639H294L350 561Q332 497 332 384V342Q332 280 333.0 235.0Q334 190 334 152Q334 10 222 10Z" transform="translate(0.0, 72) scale(0.072, -0.072)" /><path d="M393 5Q369 13 349.0 21.5Q329 30 311 40Q297 26 277.5 17.5Q258 9 233 9Q216 9 183.5 20.0Q151 31 117.0 48.5Q83 66 59.5 87.5Q36 109 36 130Q36 156 36.5 176.5Q37 197 37 201Q37 260 67.5 284.5Q98 309 153 309Q181 309 213.0 305.0Q245 301 265 296Q266 324 266.5 349.5Q267 375 267 388Q267 399 261.0 404.0Q255 409 239 409Q200 409 173.0 403.0Q146 397 122 383H103L38 478L46 494H213Q233 494 258.5 478.5Q284 463 309.0 440.0Q334 417 350.0 393.0Q366 369 366 351Q366 318 364.0 273.0Q362 228 360.0 181.5Q358 135 358 97Q358 67 368.0 55.5Q378 44 406 33ZM135 130Q135 105 144.0 98.5Q153 92 166 92Q207 92 234.5 113.5Q262 135 262 181Q262 190 262.5 203.0Q263 216 263 232Q252 235 236.0 236.0Q220 237 207 237Q171 237 153.0 221.0Q135 205 135 165Z" transform="translate(27.72, 72) scale(0.072, -0.072)" /><path d="M111 561 45 632V642Q72 678 118 705L184 636L183 624Q163 610 145.5 593.0Q128 576 111 561ZM200 -2Q136 22 101.5 41.5Q67 61 67 77Q67 91 70.5 120.5Q74 150 74 178V321Q74 347 76.5 369.5Q79 392 85 409H52L-1 477L6 494H134L192 416Q180 400 176.5 376.0Q173 352 173 315V167Q173 131 170.0 103.5Q167 76 167 62Q167 52 174.5 46.5Q182 41 212 25Z" transform="translate(57.455999999999996, 72) scale(0.072, -0.072)" /><path d="M190 0Q126 24 91.5 43.5Q57 63 57 79Q57 93 60.5 122.5Q64 152 64 180V308Q64 328 65.5 358.0Q67 388 72 409H35L-17 478L-10 494H84Q88 494 101.5 480.5Q115 467 129 450Q148 476 176.5 488.5Q205 501 232 501H253Q273 501 297.5 485.0Q322 469 345.5 446.0Q369 423 384.0 400.5Q399 378 399 364Q399 339 397.0 302.0Q395 265 395 242V169Q395 133 392.0 105.5Q389 78 389 64Q389 54 396.5 48.5Q404 43 434 27L422 0Q358 24 323.5 43.5Q289 63 289 79Q289 93 292.5 122.5Q296 152 296 180V232Q296 264 298.0 305.0Q300 346 300 377Q300 397 295.0 404.0Q290 411 273 411Q217 411 190.0 382.5Q163 354 163 304V169Q163 133 160.0 105.5Q157 78 157 64Q157 54 164.5 48.5Q172 43 202 27Z" transform="translate(74.66399999999999, 72) scale(0.072, -0.072)" /><path d="M111 561 45 632V642Q72 678 118 705L184 636L183 624Q163 610 145.5 593.0Q128 576 111 561ZM200 -2Q136 22 101.5 41.5Q67 61 67 77Q67 91 70.5 120.5Q74 150 74 178V321Q74 347 76.5 369.5Q79 392 85 409H52L-1 477L6 494H134L192 416Q180 400 176.5 376.0Q173 352 173 315V167Q173 131 170.0 103.5Q167 76 167 62Q167 52 174.5 46.5Q182 41 212 25Z" transform="translate(107.064, 72) scale(0.072, -0.072)" /></g></svg>
